icons/tokens/0x57Ab1ec28D129707052df4dF418D58a2D46d5f51/logo.svg

<svg width="32" height="32" viewBox="0 0 32 32" fill="none" xmlns="http://www.w3.org/2000/svg">
<circle cx="16" cy="16" r="16" fill="#0E052F"/>
<circle cx="16" cy="16" r="16" fill="url(#paint0_linear)" fill-opacity="0.75"/>
<circle cx="16" cy="16" r="13.8667" fill="white"/>
<circle cx="15.9666" cy="15.9667" r="12.6333" fill="#0E052F"/>
<path d="M15.2875 21.6735C14.6944 21.6284 14.137 21.5042 13.6152 21.3011C13.0933 21.0867 12.6426 20.8102 12.2631 20.4717C11.8836 20.1332 11.5811 19.7439 11.3558 19.3038C11.1305 18.8637 11.0119 18.3841 11 17.865H13.1882C13.2119 18.418 13.4135 18.8806 13.7931 19.253C14.1845 19.6141 14.6826 19.8229 15.2875 19.8793V16.5278L14.4513 16.4094C13.4906 16.2852 12.7257 15.9411 12.1564 15.3768C11.5989 14.8126 11.3202 14.0961 11.3202 13.2272C11.3202 12.7758 11.427 12.3526 11.6404 11.9577C11.8539 11.5514 12.1445 11.196 12.5122 10.8913C12.8798 10.5753 13.3009 10.3215 13.7753 10.1296C14.2574 9.93875 14.7673 9.81889 15.2875 9.77416V8.2H16.5861V9.80802C17.1198 9.87572 17.612 10.0111 18.0627 10.2143C18.5134 10.4061 18.9048 10.6543 19.2369 10.959C19.569 11.2637 19.8299 11.6135 20.0197 12.0085C20.2213 12.4034 20.334 12.8266 20.3577 13.2779H18.1695C18.1458 12.8717 17.9856 12.5219 17.6891 12.2285C17.4045 11.9238 17.0368 11.7151 16.5861 11.6022V14.6998L17.191 14.7844C17.6417 14.8521 18.0687 14.9706 18.4719 15.1399C18.8752 15.3091 19.225 15.5292 19.5215 15.8C19.8299 16.0708 20.0671 16.3981 20.2331 16.7817C20.411 17.1541 20.5 17.5773 20.5 18.0512C20.5 18.559 20.3992 19.0217 20.1976 19.4392C20.0078 19.8454 19.735 20.2065 19.3792 20.5225C19.0353 20.8272 18.6202 21.0811 18.1339 21.2842C17.6595 21.476 17.1436 21.6001 16.5861 21.6566V23.4H15.2875V21.6735V21.6735ZM16.5861 19.8624C17.1436 19.7721 17.5765 19.5803 17.8848 19.2869C18.1932 18.9822 18.3474 18.5985 18.3474 18.1359C18.3474 17.7071 18.1991 17.3911 17.9026 17.188C17.6061 16.9736 17.2681 16.8325 16.8886 16.7648L16.5861 16.714V19.8624V19.8624ZM15.2875 11.5514C14.7893 11.6192 14.3624 11.7941 14.0066 12.0762C13.6626 12.347 13.4906 12.7137 13.4906 13.1764C13.4906 13.5713 13.6033 13.8704 13.8287 14.0735C14.0659 14.2653 14.3742 14.3895 14.7537 14.4459L15.2875 14.5305V11.5514V11.5514Z" fill="white"/>
<defs>
<linearGradient id="paint0_linear" x1="0" y1="0" x2="32" y2="32" gradientUnits="userSpaceOnUse">
<stop stop-color="#31D8A4"/>
<stop offset="1" stop-color="#31D8A4" stop-opacity="0"/>
</linearGradient>
</defs>
</svg>

<svg fill="none" viewBox="0 0 32 32"><circle cx="16" cy="16" r="16" fill="#0E052F"/><circle cx="16" cy="16" r="16" fill="url(#paint0_linear)" fill-opacity=".75"/><circle cx="16" cy="16" r="13.867" fill="#fff"/><circle cx="15.967" cy="15.967" r="12.633" fill="#0E052F"/><path fill="#fff" d="M15.287 21.674a5.795 5.795 0 01-1.672-.373 4.684 4.684 0 01-1.352-.83 3.994 3.994 0 01-.907-1.167A3.28 3.28 0 0111 17.865h2.188c.024.553.226 1.016.605 1.388.392.361.89.57 1.495.626v-3.351l-.837-.119c-.96-.124-1.725-.468-2.295-1.032-.557-.564-.836-1.28-.836-2.15 0-.451.107-.874.32-1.27a3.5 3.5 0 01.872-1.066 4.51 4.51 0 011.263-.761 5.361 5.361 0 011.512-.356V8.2h1.3v1.608a5.147 5.147 0 011.476.406c.45.192.842.44 1.174.745.332.305.593.655.783 1.05.201.394.314.818.338 1.269h-2.189a1.56 1.56 0 00-.48-1.05 2.2 2.2 0 00-1.103-.626V14.7l.605.084c.45.068.878.187 1.28.356.404.17.754.39 1.05.66.309.27.546.598.712.982.178.372.267.795.267 1.27 0 .507-.1.97-.302 1.387a3.34 3.34 0 01-.819 1.084 4.437 4.437 0 01-1.245.761 5.62 5.62 0 01-1.548.373V23.4h-1.298v-1.726zm1.3-1.812c.557-.09.99-.282 1.298-.575.308-.305.462-.688.462-1.151 0-.429-.148-.745-.444-.948a2.436 2.436 0 00-1.014-.423l-.303-.051v3.148zm-1.3-8.31a2.577 2.577 0 00-1.28.524c-.344.271-.516.638-.516 1.1 0 .395.112.694.338.897.237.192.545.316.925.373l.534.085v-2.98z"/><defs><linearGradient id="paint0_linear" x1="0" x2="32" y1="0" y2="32" gradientUnits="userSpaceOnUse"><stop stop-color="#31D8A4"/><stop offset="1" stop-color="#31D8A4" stop-opacity="0"/></linearGradient></defs></svg>
